X: 7056
T: Chodziła Mania
R: polka
M: 2/4
K: Dminor
[V:V1]"Dm"D2 DE|F2A2|"A"E2FE|D4|
w:Chodziła Mania po łące
[V:V1]"F"F2 FA|c6/ A|"Gm"B2 BA|
w:Chodziła Mania po łące
[V:V1]"C"G2 GA|B2B2|"A"A2 AG|
w:Zbierała kwiaty pachnące
[V:V1]"Dm"D2 DE|F2A2|"A"E2F2|D4
w:Zbierała kwiaty pachnące

